src/lib/packages/icons/src/assets/filled/cake-slice.svg

<svg width="24" height="24" viewBox="0 0 24 24" fill="none" xmlns="http://www.w3.org/2000/svg">
<path d="M21.75 11.96C21.54 8.10003 19.06 4.73002 15.42 3.37002C14.81 3.14002 14.12 3.24003 13.56 3.63003L3.20001 10.94C2.60001 11.36 2.25 12.05 2.25 12.78V18C2.25 19.52 3.48 20.75 5 20.75H19C20.52 20.75 21.75 19.52 21.75 18V12C21.75 12 21.75 11.97 21.75 11.96ZM3.75 12.78C3.75 12.78 3.75 12.76 3.75 12.75H20.24V15.25H3.73999V12.78H3.75ZM19 19.25H5C4.31 19.25 3.75 18.69 3.75 18V16.75H20.25V18C20.25 18.69 19.69 19.25 19 19.25Z" fill="currentColor"/>
</svg>

<svg xmlns="http://www.w3.org/2000/svg" width="24" height="24" fill="none"><path fill="currentColor" d="M21.75 11.96a9.738 9.738 0 0 0-6.33-8.59c-.61-.23-1.3-.13-1.86.26L3.2 10.94c-.6.42-.95 1.11-.95 1.84V18c0 1.52 1.23 2.75 2.75 2.75h14c1.52 0 2.75-1.23 2.75-2.75v-6.04Zm-18 .82v-.03h16.49v2.5H3.74v-2.47h.01ZM19 19.25H5c-.69 0-1.25-.56-1.25-1.25v-1.25h16.5V18c0 .69-.56 1.25-1.25 1.25Z"/></svg>
